brandFactory_export/2.Regular/Persona_2Regular.svg

<?xml version="1.0" encoding="UTF-8"?>
<svg width="24px" height="24px" viewBox="0 0 24 24" version="1.1" xmlns="http://www.w3.org/2000/svg" xmlns:xlink="http://www.w3.org/1999/xlink">
    <title>2.Regular/Persona_2Regular</title>
    <g id="Symbols" stroke="none" stroke-width="1" fill="none" fill-rule="evenodd">
        <g id="2.Regular/Persona_2Regular" fill="#5CB615" fill-rule="nonzero">
            <path d="M17.0722689,15.1327731 C17.2773109,15.0789916 17.394958,14.8705882 17.3411765,14.6722689 L15.9630252,9.63361345 C15.9361345,9.57983193 15.9193277,9.52605042 15.9058824,9.46554622 C15.902521,9.4487395 15.8957983,9.43193277 15.892437,9.41512605 C15.7042017,8.51092437 14.8907563,7.85210084 13.9529412,7.85210084 L10.8773109,7.85210084 C9.9394958,7.85210084 9.12268908,8.51092437 8.93445378,9.41512605 C8.93109244,9.43529412 8.92773109,9.45210084 8.9210084,9.46890756 C8.90756303,9.52268908 8.8907563,9.57647059 8.86722689,9.62689076 L7.48571429,14.6789916 C7.43529412,14.8739496 7.54957983,15.0789916 7.74789916,15.1327731 C7.88235294,15.1697479 7.98319328,15.1294118 8.03361345,15.0991597 C8.08403361,15.0722689 8.17142857,15.005042 8.20504202,14.8806723 L8.81344538,11.5361345 C8.88067227,11.1663866 9.21344538,10.9109244 9.59663866,10.9445378 C9.97310924,10.9781513 10.2621849,11.2907563 10.2621849,11.6638655 L10.2621849,21.8420168 C10.2621849,22 10.3092437,22.1882353 10.5378151,22.1882353 C10.605042,22.1882353 10.7764706,22.1882353 10.7764706,21.8420168 L10.7764706,15.7747899 C10.7764706,15.3747899 11.102521,15.0521008 11.5058824,15.0521008 L13.3008403,15.0521008 C13.7042017,15.0521008 14.0302521,15.3747899 14.0302521,15.7747899 L14.0302521,21.8420168 C14.0302521,21.9294118 14.0504202,22.2117647 14.292437,22.2117647 C14.5411765,22.2117647 14.5613445,21.9260504 14.5613445,21.8420168 L14.5613445,11.6638655 C14.5613445,11.2907563 14.8504202,10.9781513 15.2235294,10.9445378 C15.6033613,10.9243697 15.9394958,11.1697479 16.0067227,11.5361345 L16.6285714,14.9411765 C16.6487395,15.0084034 16.7361345,15.0722689 16.7865546,15.102521 C16.8470588,15.1260504 16.9478992,15.1663866 17.0722689,15.1327731 Z M18.7529412,14.2991597 C19.0117647,15.2739496 18.4302521,16.2722689 17.4588235,16.5277311 C16.9983193,16.6588235 16.5008403,16.5983193 16.0705882,16.3529412 C16.0537815,16.3428571 16.0369748,16.3361345 16.0235294,16.3260504 L16.0235294,21.8386555 C16.0235294,22.8739496 15.2806723,23.6571429 14.2957983,23.6571429 C13.3142857,23.6571429 12.5747899,22.8739496 12.5747899,21.8386555 L12.5747899,16.4941176 L12.2386555,16.4941176 L12.2386555,21.8386555 C12.2386555,22.8773109 11.5260504,23.6302521 10.5411765,23.6302521 C9.55294118,23.6302521 8.80672269,22.8605042 8.80672269,21.8386555 L8.80672269,16.3260504 C8.78991597,16.3361345 8.77647059,16.3462185 8.75966387,16.3563025 C8.32941176,16.5983193 7.83529412,16.6588235 7.36470588,16.5277311 C6.40336134,16.2722689 5.82184874,15.2773109 6.07731092,14.3058824 L7.45882353,9.25378151 C7.46554622,9.21680672 7.48571429,9.14957983 7.51596639,9.0789916 C7.85882353,7.52605042 9.26722689,6.40672269 10.8773109,6.40672269 L13.9529412,6.40672269 C15.5630252,6.40672269 16.9680672,7.52605042 17.3109244,9.07563025 C17.3445378,9.15294118 17.3647059,9.22689076 17.3815126,9.30084034 L18.7529412,14.2991597 Z M10.9613445,1.83193277 C10.712605,2.07058824 10.5848739,2.46722689 10.5848739,3.01176471 C10.5848739,4.07731092 11.0453782,4.53445378 12.1210084,4.53445378 C13.2033613,4.53445378 13.6638655,4.07731092 13.6638655,3.01176471 C13.6638655,2.47058824 13.5361345,2.07394958 13.287395,1.83193277 C13.0420168,1.59663866 12.6487395,1.4789916 12.1210084,1.4789916 C11.5932773,1.4789916 11.2033613,1.59663866 10.9613445,1.83193277 L10.9613445,1.83193277 Z M12.1210084,5.97983193 C10.2453782,5.97983193 9.12268908,4.86722689 9.12268908,3.00840336 C9.12268908,2.05714286 9.39831933,1.31428571 9.94285714,0.789915966 C10.4672269,0.285714286 11.2,0.0302521008 12.1176471,0.0302521008 C13.0386555,0.0302521008 13.7714286,0.285714286 14.2957983,0.789915966 C14.8403361,1.31092437 15.1193353,2.05714286 15.1193353,3.00840336 C15.1226891,4.87058824 14.0033613,5.97983193 12.1210084,5.97983193 Z" id="Persona_2Regular"></path>
        </g>
    </g>
</svg>

<svg width="24" height="24" viewBox="0 0 24 24" xmlns="http://www.w3.org/2000/svg"><path d="M17.072 15.133a.375.375 0 00.27-.46l-1.379-5.04a.708.708 0 01-.057-.167c-.003-.017-.01-.034-.014-.05a1.981 1.981 0 00-1.94-1.564h-3.075A1.985 1.985 0 008.921 9.47a.875.875 0 01-.054.158l-1.381 5.052c-.05.195.064.4.262.454a.362.362 0 00.286-.034.354.354 0 00.171-.218l.608-3.345c.068-.37.4-.625.784-.591a.727.727 0 01.665.719v10.178c0 .158.047.346.276.346.067 0 .238 0 .238-.346v-6.067c0-.4.327-.723.73-.723H13.3c.403 0 .73.323.73.723v6.067c0 .087.02.37.261.37.25 0 .27-.286.27-.37V11.664c0-.373.288-.686.662-.72.38-.02.715.226.783.592l.622 3.405c.02.067.107.131.158.162.06.023.16.063.285.03zm1.68-.834a1.82 1.82 0 01-1.293 2.229 1.8 1.8 0 01-1.388-.175c-.017-.01-.034-.017-.047-.027v5.513c0 1.035-.743 1.818-1.728 1.818-.982 0-1.721-.783-1.721-1.818v-5.345h-.336v5.345c0 1.038-.713 1.791-1.698 1.791-.988 0-1.734-.77-1.734-1.791v-5.513l-.047.03c-.43.242-.925.303-1.395.172a1.822 1.822 0 01-1.288-2.222L7.46 9.254a.924.924 0 01.057-.175c.343-1.553 1.751-2.672 3.361-2.672h3.076c1.61 0 3.015 1.12 3.358 2.669.034.077.054.15.07.225l1.372 4.998zm-7.79-12.467c-.25.239-.377.635-.377 1.18 0 1.065.46 1.522 1.536 1.522 1.082 0 1.543-.457 1.543-1.522 0-.541-.128-.938-.377-1.18-.245-.235-.638-.353-1.166-.353-.528 0-.918.118-1.16.353zM12.12 5.98c-1.876 0-2.998-1.113-2.998-2.972 0-.95.275-1.694.82-2.218.524-.504 1.257-.76 2.175-.76.92 0 1.653.256 2.178.76.544.52.823 1.267.823 2.218.004 1.863-1.116 2.972-2.998 2.972z" fill="#5CB615" fill-rule="nonzero"/></svg>
